X:128
T:Why Do You Leave Me?  
B:CGI.194
F:file ID jcgi/128leave
Z:bill@capeirish.com
Q:100
L:1/8
M:C
R:march
K:G 
"andante"
d>edB g3e|dBAG E3G|DGBe d2B>G|A6 d2|
d>edB g3a|b>[ac']be g2B>c|d>eGA B2A>B|G6 ||
g>f|e3c A2g>f|e3g a2G>A|B2d>e dgfg|a6 G>A|
B3c dbab|g2G>A G2B>c|d>edB d2A>B|G4-G4 |]

